X:B15D2
T:Roger de Coverley
M:9/8
O:England
K:G
P:A
"D"D2D D2B AFD| "Esusm7"B,2E EFD CB,A,| "G9"DED D2B AFA| d2D DED CB,A,:|
P:B
"D"AFA "G"BGB "D/F"AFD| "Em7"B,2E EFD "D"CB,A,| "G9"AFA BGB ABc| d2D DED "A"CB,A,:|
P:C
"Bm"d2d "D9/F"c2B AFD| "Em7"B,2E E2D "D"CB,A,| "G"ded c2B ABc| d2D DED "A"CB,A,:|


